assets/backward-circle.svg

<svg xmlns="http://www.w3.org/2000/svg" fill="none" viewBox="0 0 28 28">
  <circle cx="14" cy="14" r="13.25" stroke="#2A2238" stroke-width="1.5" transform="rotate(-180 14 14)"/>
  <path fill="#2A2238" d="M13.05 14.6062c-.4667-.2694-.4667-.943 0-1.2124l6.9-3.98373c.4667-.26943 1.05.06735 1.05.60623v7.9674c0 .5389-.5833.8757-1.05.6062l-6.9-3.9837Z"/>
  <path fill="#2A2238" d="M5.05 14.6062c-.46667-.2694-.46667-.943 0-1.2124l6.9-3.98373c.4667-.26943 1.05.06735 1.05.60623v7.9674c0 .5389-.5833.8757-1.05.6062l-6.9-3.9837Z"/>
</svg>

<svg width="28" height="28" viewBox="0 0 28 28" fill="none" xmlns="http://www.w3.org/2000/svg">
<circle cx="14" cy="14" r="13.25" transform="rotate(-180 14 14)" stroke="#2A2238" stroke-width="1.5"/>
<path d="M13.05 14.6062C12.5833 14.3368 12.5833 13.6632 13.05 13.3938L19.95 9.41007C20.4167 9.14064 21 9.47742 21 10.0163V17.9837C21 18.5226 20.4167 18.8594 19.95 18.5899L13.05 14.6062Z" fill="#2A2238"/>
<path d="M5.05 14.6062C4.58333 14.3368 4.58333 13.6632 5.05 13.3938L11.95 9.41007C12.4167 9.14064 13 9.47742 13 10.0163V17.9837C13 18.5226 12.4167 18.8594 11.95 18.5899L5.05 14.6062Z" fill="#2A2238"/>
</svg>
